raws/icons/decors/arrow.svg

<svg width="7" height="13" viewBox="0 0 7 13" fill="none" xmlns="http://www.w3.org/2000/svg">
<path d="M0.166456 12.2346C0.0527935 12.1209 -0.00403738 11.9788 -0.00403738 11.8083C-0.00403738 11.6378 0.0527935 11.4958 0.166456 11.3821L4.94026 6.60829L0.166456 1.83448C0.0527935 1.72082 -0.00403738 1.57874 -0.00403738 1.40825C-0.00403738 1.23776 0.0527935 1.09568 0.166456 0.982017C0.292747 0.868354 0.437982 0.811523 0.60216 0.811523C0.766339 0.811523 0.905259 0.868354 1.01892 0.982017L6.22843 6.17258C6.27895 6.23573 6.31999 6.30519 6.35157 6.38096C6.38314 6.45674 6.39893 6.53251 6.39893 6.60829C6.39893 6.68406 6.38314 6.75984 6.35157 6.83561C6.31999 6.91139 6.27895 6.98085 6.22843 7.04399L1.01892 12.2346C0.905259 12.3482 0.766339 12.4051 0.60216 12.4051C0.437982 12.4051 0.292747 12.3482 0.166456 12.2346Z" fill="white"/>
</svg>

<svg width="7" height="13" fill="none" xmlns="http://www.w3.org/2000/svg"><path d="M.166 12.235a.578.578 0 01-.17-.427c0-.17.057-.312.17-.426L4.94 6.608.166 1.834a.578.578 0 01-.17-.426c0-.17.057-.312.17-.426a.632.632 0 01.436-.17c.164 0 .303.056.417.17l5.21 5.19c.05.064.091.133.123.209a.587.587 0 01.047.227.587.587 0 01-.047.228.863.863 0 01-.124.208l-5.21 5.19a.567.567 0 01-.416.171.633.633 0 01-.436-.17z" fill="#fff"/></svg>
